X: 26692
T: Mike And The Volcano
R: hornpipe
M: 4/4
K: Dmixolydian
AD FA cE GB|Ad d^c d2 ef|gf ed cB AG|Ad fd (3cdc FG|
AD FA cE GB|Ad d^c d2 fg|af ed ce ag|1 f2 d2 d2 B2:|2 f2 d2 d2 fg||
ab af gf ed|cB AG A2 FG|AF Ad fA df|gf ed c2 fg|
ab af gf ed|cB AG A2 FG|Af ed ce ag|1 f2 d2 d2 fg:|2 f2 d2 d2 [B2]||

